;FLAVOR:Marlin
;TIME:2663
;Filament used: 1.65659m
;Layer height: 0.1
;MINX:92.199
;MINY:59.914
;MINZ:0.3
;MAXX:132.53
;MAXY:97.71
;MAXZ:22.4
;Generated with Cura_SteamEngine 5.3.1
M140 S60
M105
M190 S60
M104 S200
M105
M109 S200
M82 ;absolute extrusion mode
G21 ;metric values
 G90 ;absolute positioning
 M82 ;set extruder to absolute mode
 M107 ;start with the fan off
 G28 X0 Y0 ;move X/Y to min endstops
 G28 Z0 ;move Z to min endstops
 G1 Z15.0 F120 ;move the platform down 15mm
 G92 E0 ;zero the extruded length
 G1 F200 E6 ;extrude 6 mm of feed stock
 G92 E0 ;zero the extruded length again
 G1 F120 
 ;Put printing message on LCD screen
 M117 Printing...
G92 E0
G92 E0
G1 F1500 E-6.5
;LAYER_COUNT:223
;LAYER:0
M107
G0 F3600 X96.808 Y71.215 Z0.3
;TYPE:SKIRT
G1 F1500 E0
G1 F1800 X97.569 Y70.184 E0.06393
G1 X101.605 Y65.609 E0.3683
G1 X102.051 Y65.119 E0.40136
G1 X102.597 Y64.641 E0.43756
G1 X103.288 Y64.163 E0.47948
G1 X107.048 Y61.647 E0.70519
G1 X107.679 Y61.239 E0.74268
G1 X108.123 Y60.998 E0.76788
G1 X108.6 Y60.83 E0.79311
G1 X109.169 Y60.727 E0.82196
G1 X109.991 Y60.714 E0.86298
G1 X113.759 Y60.714 E1.05096
G1 X114.467 Y60.725 E1.08629
G1 X114.97 Y60.773 E1.1115
G1 X115.525 Y60.923 E1.14018
G1 X116.08 Y61.128 E1.1697
G1 X117.546 Y61.693 E1.24808
G1 X120.129 Y62.606 E1.38476
G1 X122.728 Y63.443 E1.52098
G1 X125.322 Y64.201 E1.65581
G1 X125.795 Y64.381 E1.68106
G1 X126.233 Y64.633 E1.70627
G1 X126.71 Y65.019 E1.73689
G1 X130.494 Y69.481 E2.02877
G1 X130.991 Y70.085 E2.06779
G1 X131.281 Y70.499 E2.09301
G1 X131.502 Y70.954 E2.11824
G1 X131.648 Y71.438 E2.14347
G1 X131.728 Y72.019 E2.17273
G1 X131.665 Y73.746 E2.25894
G1 X131.605 Y76.471 E2.39493
G1 X131.623 Y79.246 E2.53338
G1 X131.714 Y82.151 E2.67838
G1 X131.69 Y82.656 E2.7036
G1 X131.587 Y83.151 E2.72882
G1 X131.407 Y83.623 E2.75403
G1 X131.118 Y84.125 E2.78293
G1 X130.456 Y84.93 E2.83492
G1 X129.525 Y86.029 E2.90678
G1 X127.14 Y88.954 E3.09507
G1 X126.863 Y89.305 E3.11738
G1 X126.426 Y89.832 E3.15154
G1 X124.716 Y91.951 E3.28738
G1 X123.05 Y94.141 E3.42466
G1 X122.573 Y94.806 E3.46549
G1 X121.978 Y95.608 E3.51531
G1 X121.646 Y95.989 E3.54053
G1 X121.257 Y96.312 E3.56575
G1 X120.823 Y96.571 E3.59097
G1 X120.353 Y96.758 E3.6162
G1 X119.86 Y96.869 E3.64141
G1 X119.392 Y96.909 E3.66485
G1 X110.076 Y96.91 E4.12963
G1 X109.375 Y96.9 E4.1646
G1 X108.872 Y96.853 E4.18981
G1 X108.382 Y96.727 E4.21505
G1 X107.919 Y96.525 E4.24025
G1 X107.383 Y96.183 E4.27197
G1 X106.818 Y95.631 E4.31138
G1 X105.496 Y94.292 E4.40525
G1 X103.53 Y92.41 E4.54104
G1 X101.493 Y90.568 E4.67805
G1 X99.373 Y88.758 E4.81712
G1 X97.3 Y87.087 E4.94996
G1 X95.093 Y85.407 E5.08834
G1 X94.305 Y84.824 E5.13724
G1 X93.923 Y84.492 E5.16249
G1 X93.599 Y84.105 E5.18767
G1 X93.34 Y83.671 E5.21289
G1 X93.152 Y83.201 E5.23814
G1 X93.041 Y82.708 E5.26336
G1 X93 Y82.238 E5.28689
G1 X92.999 Y77.92 E5.50232
G1 X93.009 Y77.217 E5.5374
G1 X93.056 Y76.714 E5.5626
G1 X93.182 Y76.224 E5.58784
G1 X93.384 Y75.761 E5.61304
G1 X93.69 Y75.289 E5.64111
G1 X94.426 Y74.35 E5.70063
G1 X94.768 Y73.927 E5.72777
G1 X96.423 Y71.751 E5.86416
G1 X96.808 Y71.215 E5.89708
G0 F3600 X96.486 Y70.977
G1 F1800 X97.247 Y69.946 E5.96102
G1 X101.309 Y65.34 E6.2674
G1 X101.755 Y64.85 E6.30046
G1 X102.369 Y64.312 E6.34119
G1 X103.066 Y63.831 E6.38344
G1 X106.831 Y61.311 E6.60947
G1 X107.488 Y60.887 E6.64848
G1 X107.932 Y60.646 E6.67368
G1 X108.529 Y60.436 E6.70526
G1 X109.098 Y60.333 E6.73411
G1 X109.985 Y60.314 E6.77837
G1 X113.765 Y60.314 E6.96695
G1 X114.473 Y60.325 E7.00228
G1 X115.041 Y60.378 E7.03074
G1 X115.664 Y60.548 E7.06296
G1 X116.224 Y60.755 E7.09274
G1 X117.686 Y61.319 E7.17092
G1 X120.252 Y62.225 E7.30669
G1 X122.851 Y63.062 E7.44291
G1 X125.464 Y63.827 E7.57874
G1 X125.994 Y64.034 E7.60713
G1 X126.485 Y64.322 E7.63553
G1 X126.99 Y64.731 E7.66795
G1 X130.803 Y69.227 E7.96206
G1 X131.319 Y69.856 E8.00265
G1 X131.641 Y70.324 E8.03099
G1 X131.862 Y70.779 E8.05623
G1 X132.031 Y71.322 E8.0846
G1 X132.129 Y72 E8.11878
G1 X132.065 Y73.761 E8.20669
G1 X132.005 Y76.48 E8.34238
G1 X132.023 Y79.233 E8.47973
G1 X132.114 Y82.17 E8.62633
G1 X132.09 Y82.675 E8.65155
G1 X131.961 Y83.294 E8.68309
G1 X131.754 Y83.823 E8.71144
G1 X131.465 Y84.325 E8.74033
G1 X130.761 Y85.189 E8.79594
G1 X129.83 Y86.288 E8.8678
G1 X127.45 Y89.207 E9.0557
G1 X127.171 Y89.56 E9.07814
G1 X126.734 Y90.087 E9.1123
G1 X125.027 Y92.202 E9.2479
G1 X123.375 Y94.374 E9.38404
G1 X122.894 Y95.044 E9.42519
G1 X122.28 Y95.871 E9.47658
G1 X121.902 Y96.297 E9.50499
G1 X121.513 Y96.62 E9.53022
G1 X120.971 Y96.943 E9.56169
G1 X120.501 Y97.13 E9.58693
G1 X119.894 Y97.268 E9.61799
G1 X119.426 Y97.308 E9.64142
G1 X110.07 Y97.31 E10.10819
G1 X109.369 Y97.3 E10.14317
G1 X108.772 Y97.24 E10.1731
G1 X108.222 Y97.094 E10.20149
G1 X107.759 Y96.892 E10.2267
G1 X107.132 Y96.497 E10.26367
G1 X106.533 Y95.912 E10.30544
G1 X105.211 Y94.573 E10.39931
G1 X103.253 Y92.699 E10.53453
G1 X101.225 Y90.865 E10.67095
G1 X99.113 Y89.062 E10.80949
G1 X97.049 Y87.398 E10.94176
G1 X94.855 Y85.729 E11.07929
G1 X94.067 Y85.146 E11.12819
G1 X93.616 Y84.749 E11.15817
G1 X93.292 Y84.362 E11.18335
G1 X92.969 Y83.82 E11.21483
G1 X92.762 Y83.289 E11.24326
G1 X92.651 Y82.796 E11.26847
G1 X92.6 Y82.238 E11.29643
G1 X92.599 Y77.914 E11.51215
G1 X92.609 Y77.211 E11.54723
G1 X92.669 Y76.614 E11.57716
G1 X92.815 Y76.064 E11.60555
G1 X93.048 Y75.543 E11.63403
G1 X93.354 Y75.071 E11.66209
G1 X94.115 Y74.099 E11.72368
G1 X94.457 Y73.676 E11.75082
G1 X96.098 Y71.518 E11.88607
G1 X96.486 Y70.977 E11.91929
G0 F3600 X96.164 Y70.739
G1 F1800 X96.925 Y69.708 E11.98322
G1 X101.013 Y65.071 E12.29162
G1 X101.491 Y64.549 E12.32693
G1 X102.105 Y64.011 E12.36766
G1 X102.844 Y63.499 E12.41252
G1 X106.614 Y60.975 E12.63886
G1 X107.297 Y60.535 E12.6794
G1 X107.741 Y60.294 E12.7046
G1 X108.458 Y60.042 E12.74252
G1 X109.027 Y59.939 E12.77137
G1 X109.976 Y59.914 E12.81873
G1 X113.771 Y59.914 E13.00806
G1 X114.479 Y59.925 E13.04339
G1 X115.114 Y59.983 E13.0752
G1 X115.769 Y60.162 E13.10908
G1 X116.368 Y60.382 E13.14091
G1 X117.826 Y60.945 E13.21889
G1 X120.375 Y61.844 E13.35373
G1 X122.974 Y62.681 E13.48996
G1 X125.61 Y63.454 E13.62701
G1 X126.14 Y63.661 E13.65539
G1 X126.737 Y64.011 E13.68992
G1 X127.27 Y64.443 E13.72415
G1 X131.112 Y68.973 E14.02049
G1 X131.649 Y69.629 E14.06278
G1 X131.971 Y70.097 E14.09112
G1 X132.222 Y70.604 E14.11935
G1 X132.413 Y71.203 E14.15072
G1 X132.53 Y71.978 E14.18982
G1 X132.465 Y73.776 E14.27958
G1 X132.405 Y76.489 E14.41497
G1 X132.423 Y79.221 E14.55127
G1 X132.514 Y82.189 E14.69941
G1 X132.482 Y82.757 E14.72779
G1 X132.353 Y83.376 E14.75934
G1 X132.101 Y84.023 E14.79398
G1 X131.812 Y84.525 E14.82288
G1 X131.066 Y85.448 E14.88209
G1 X130.135 Y86.547 E14.95395
G1 X127.76 Y89.46 E15.14146
G1 X127.479 Y89.815 E15.16405
G1 X127.042 Y90.342 E15.1982
G1 X125.338 Y92.453 E15.33355
G1 X123.7 Y94.607 E15.46856
G1 X123.215 Y95.282 E15.51002
G1 X122.601 Y96.109 E15.56141
G1 X122.158 Y96.605 E15.59459
G1 X121.718 Y96.964 E15.62292
G1 X121.176 Y97.287 E15.6544
G1 X120.649 Y97.502 E15.68279
G1 X119.928 Y97.667 E15.7197
G1 X119.46 Y97.707 E15.74313
G1 X110.064 Y97.71 E16.2119
G1 X109.363 Y97.7 E16.24687
G1 X108.669 Y97.627 E16.28169
G1 X108.119 Y97.481 E16.31008
G1 X107.599 Y97.259 E16.33829
G1 X106.884 Y96.813 E16.38033
G1 X106.248 Y96.193 E16.42464
G1 X104.926 Y94.854 E16.51852
G1 X102.976 Y92.988 E16.65317
G1 X100.957 Y91.162 E16.78898
G1 X98.853 Y89.366 E16.927
G1 X96.798 Y87.709 E17.0587
G1 X94.617 Y86.051 E17.19538
G1 X93.829 Y85.468 E17.24428
G1 X93.309 Y85.006 E17.27899
G1 X92.948 Y84.567 E17.30734
G1 X92.625 Y84.025 E17.33882
G1 X92.389 Y83.434 E17.37057
G1 X92.261 Y82.884 E17.39874
G1 X92.2 Y82.238 E17.43111
G1 X92.199 Y77.908 E17.64714
G1 X92.209 Y77.205 E17.68221
G1 X92.282 Y76.511 E17.71703
G1 X92.428 Y75.961 E17.74542
G1 X92.712 Y75.325 E17.78017
G1 X93.018 Y74.853 E17.80823
G1 X93.804 Y73.848 E17.87189
G1 X94.146 Y73.425 E17.89902
G1 X95.773 Y71.285 E18.03314
G1 X96.164 Y70.739 E18.06665
G1 F1500 E11.56665
;MESH:test.obj
G0 F3600 X99.609 Y71.702
G0 X100.421 Y72.418
G0 X118.516 Y87.132
G0 X118.816 Y87.132
;TYPE:WALL-INNER
G1 F1500 E18.06665
G1 F1800 X118.964 Y86.863 E18.08196
G1 X119.098 Y86.749 E18.09074
G1 X119.359 Y86.661 E18.10448
G1 X124.008 Y86.658 E18.33642
G1 X127.804 Y82.184 E18.62915
G1 X123.935 Y77.62 E18.92765
G1 X123.82 Y77.335 E18.94299
G1 X123.817 Y77.062 E18.95661
G1 X123.931 Y76.752 E18.97309
G1 X127.804 Y72.183 E19.27191
G1 X124.139 Y67.859 E19.5547
G1 X119.358 Y67.857 E19.79323
G1 X119.138 Y67.792 E19.80467
G1 X114.234 Y64.514 E20.09896
G1 X109.597 Y64.514 E20.3303
G1 X104.819 Y67.711 E20.61711
G1 X100.603 Y72.488 E20.93498
G1 X100.602 Y77.296 E21.17485
G1 X100.554 Y77.499 E21.18526
G1 X100.453 Y77.657 E21.19462
G1 X100.299 Y77.782 E21.20451
G1 X100.055 Y77.857 E21.21725
G1 X96.799 Y77.859 E21.37969
G1 X96.799 Y81.659 E21.56927
G1 X100.055 Y81.661 E21.73172
G1 X100.298 Y81.736 E21.7444
G1 X100.412 Y81.816 E21.75135
G1 X104.688 Y86.659 E22.07367
G1 X109.452 Y86.66 E22.31135
G1 X109.679 Y86.719 E22.32305
G1 X109.934 Y86.956 E22.34042
G1 X110.016 Y87.259 E22.35608
G1 X110.015 Y93.11 E22.64798
G1 X118.816 Y93.11 E23.08707
G1 X118.816 Y87.132 E23.38531
G0 F3600 X118.516 Y87.132
G0 X123.722 Y77.831
G0 X124.255 Y77.38
;TYPE:WALL-OUTER
G1 F1800 X124.218 Y77.293 E23.39003
G1 X124.243 Y77.004 E23.4045
G1 X128.326 Y72.187 E23.71954
G1 X124.325 Y67.459 E24.02854
G1 X119.356 Y67.459 E24.27645
G1 X114.356 Y64.114 E24.57657
G1 X109.475 Y64.114 E24.82009
G1 X104.553 Y67.407 E25.11554
G1 X100.203 Y72.337 E25.44355
G1 X100.202 Y77.285 E25.69041
G1 X100.085 Y77.459 E25.70087
G1 X96.399 Y77.459 E25.88477
G1 X96.399 Y82.059 E26.11426
G1 X100.02 Y82.059 E26.29491
G1 X100.132 Y82.106 E26.30097
G1 X104.508 Y87.059 E26.63071
G1 X109.46 Y87.063 E26.87776
G1 X109.613 Y87.196 E26.88788
G1 X109.615 Y93.51 E27.20288
G1 X119.216 Y93.51 E27.68188
G1 X119.216 Y87.214 E27.99599
G1 X119.265 Y87.127 E28.00097
G1 X119.397 Y87.059 E28.00838
G1 X124.233 Y87.058 E28.24965
G1 X124.263 Y86.977 E28.25396
G1 X128.326 Y82.184 E28.56744
G1 X124.255 Y77.38 E28.88159
G0 F3600 X124.218 Y77.293
G0 X124.227 Y77.188
G0 X123.516 Y77.188
G0 X119.525 Y84.674
G0 X118.516 Y86.651
G0 X118.647 Y86.651
;TYPE:SKIN
G1 F1800 X118.439 Y87.136 E28.90792
G1 X118.436 Y92.73 E29.18701
G1 X110.396 Y92.73 E29.58812
G1 X110.393 Y87.139 E29.86706
G1 X110.218 Y86.7 E29.89064
G1 X109.993 Y86.467 E29.9068
G1 X109.688 Y86.316 E29.92378
G1 X109.494 Y86.282 E29.9336
G1 X104.861 Y86.279 E30.16474
G1 X100.681 Y81.545 E30.47982
G1 X100.478 Y81.401 E30.49223
G1 X100.087 Y81.281 E30.51264
G1 X97.179 Y81.279 E30.65772
G1 X97.179 Y78.239 E30.80938
G1 X100.088 Y78.237 E30.95452
G1 X100.478 Y78.117 E30.97487
G1 X100.736 Y77.91 E30.99138
G1 X100.906 Y77.642 E31.00721
G1 X100.981 Y77.336 E31.02293
G1 X100.983 Y72.634 E31.25751
G1 X105.076 Y67.996 E31.56612
G1 X109.711 Y64.895 E31.84434
G1 X114.119 Y64.895 E32.06426
G1 X118.97 Y68.134 E32.35526
G1 X119.296 Y68.232 E32.37225
G1 X123.965 Y68.239 E32.60519
G1 X127.305 Y72.182 E32.86299
G1 X123.592 Y76.563 E33.1495
G1 X123.439 Y77.004 E33.17279
G1 X123.479 Y77.54 E33.1996
G1 X123.629 Y77.847 E33.21665
G1 X127.304 Y82.184 E33.50026
G1 X123.834 Y86.278 E33.76801
G1 X119.302 Y86.285 E33.99411
G1 X118.985 Y86.379 E34.0106
G1 X118.647 Y86.651 E34.03225
G0 F3600 X118.516 Y86.651
G0 X123.31 Y68.438
G1 F1800 X126.98 Y72.108 E34.29119
G0 F3600 X126.788 Y72.482
G1 F1800 X122.744 Y68.438 E34.57651
G0 F3600 X122.178 Y68.438
G1 F1800 X126.528 Y72.788 E34.88343
G0 F3600 X126.268 Y73.094
G1 F1800 X121.613 Y68.438 E35.2119
G0 F3600 X121.046 Y68.438
G1 F1800 X126.009 Y73.4 E35.56203
G0 F3600 X125.749 Y73.706
G1 F1800 X120.481 Y68.438 E35.93372
G0 F3600 X119.915 Y68.438
G1 F1800 X125.49 Y74.012 E36.32703
G0 F3600 X125.23 Y74.318
G1 F1800 X119.349 Y68.438 E36.74193
G1 X119.279 Y68.368
G0 F3600 X118.219 Y67.873
G1 F1800 X124.97 Y74.624 E37.21825
G0 F3600 X124.711 Y74.93
G1 F1800 X116.517 Y66.736 E37.79638
G1 X116.447 Y66.666
G0 F3600 X114.815 Y65.6
G1 F1800 X124.451 Y75.236 E38.47625
G0 F3600 X124.191 Y75.543
G1 F1800 X113.743 Y65.094 E39.21345
G0 F3600 X113.178 Y65.094
G1 F1800 X123.931 Y75.848 E39.97217
G0 F3600 X123.672 Y76.154
G1 F1800 X112.612 Y65.094 E40.75251
G0 F3600 X112.046 Y65.094
G1 F1800 X123.414 Y76.462 E41.55458
G0 F3600 X123.264 Y76.878
G1 F1800 X111.481 Y65.094 E42.38597
G0 F3600 X110.915 Y65.094
G1 F1800 X123.273 Y77.452 E43.2579
G1 X123.343 Y77.522
G0 F3600 X124.851 Y79.596
G1 F1800 X110.349 Y65.094 E44.28109
G0 F3600 X109.783 Y65.094
G1 F1800 X126.964 Y82.275 E45.4933
G0 F3600 X126.705 Y82.581
G1 F1800 X109.44 Y65.316 E46.71144
G0 F3600 X109.101 Y65.543
G1 F1800 X126.445 Y82.887 E47.93516
G0 F3600 X126.186 Y83.193
G1 F1800 X108.762 Y65.77 E49.16448
G0 F3600 X108.423 Y65.997
G1 F1800 X125.926 Y83.5 E50.39941
G0 F3600 X125.667 Y83.806
G1 F1800 X108.084 Y66.224 E51.63995
G0 F3600 X107.745 Y66.45
G1 F1800 X125.407 Y84.112 E52.8861
G0 F3600 X125.148 Y84.418
G1 F1800 X107.406 Y66.677 E54.13786
G0 F3600 X107.067 Y66.904
G1 F1800 X124.888 Y84.724 E55.39519
G0 F3600 X124.628 Y85.031
G1 F1800 X106.728 Y67.13 E56.65817
G0 F3600 X106.389 Y67.357
G1 F1800 X124.369 Y85.337 E57.92675
G0 F3600 X124.109 Y85.643
G1 F1800 X106.051 Y67.584 E59.20088
G0 F3600 X105.711 Y67.81
G1 F1800 X123.85 Y85.949 E60.48068
G0 F3600 X123.413 Y86.078
G1 F1800 X105.373 Y68.037 E61.75354
G0 F3600 X105.071 Y68.301
G1 F1800 X122.848 Y86.078 E63.0078
G0 F3600 X122.283 Y86.079
G1 F1800 X104.805 Y68.602 E64.24093
G0 F3600 X104.54 Y68.902
G1 F1800 X121.718 Y86.08 E65.45293
G0 F3600 X121.153 Y86.081
G1 F1800 X104.275 Y69.203 E66.64377
G0 F3600 X104.01 Y69.503
G1 F1800 X120.587 Y86.081 E67.8134
G0 F3600 X120.022 Y86.081
G1 F1800 X103.745 Y69.804 E68.96183
G0 F3600 X103.48 Y70.104
G1 F1800 X119.457 Y86.082 E70.08913
G0 F3600 X118.99 Y86.18
G1 F1800 X103.214 Y70.405 E71.20218
G0 F3600 X102.949 Y70.705
G1 F1800 X118.648 Y86.404 E72.30983
G0 F3600 X118.391 Y86.713
G1 F1800 X102.684 Y71.006 E73.41804
G0 F3600 X102.419 Y71.306
G1 F1800 X118.235 Y87.122 E74.53394
G0 F3600 X118.235 Y87.688
G1 F1800 X102.154 Y71.607 E75.66854
G0 F3600 X101.889 Y71.907
G1 F1800 X118.235 Y88.253 E76.82184
G0 F3600 X118.235 Y88.819
G1 F1800 X101.623 Y72.208 E77.99387
G0 F3600 X101.358 Y72.508
G1 F1800 X118.235 Y89.385 E79.18464
G0 F3600 X118.235 Y89.951
G1 F1800 X101.181 Y72.897 E80.38789
G0 F3600 X101.181 Y73.462
G1 F1800 X118.235 Y90.516 E81.59114
G0 F3600 X118.235 Y91.082
G1 F1800 X101.181 Y74.028 E82.79439
G0 F3600 X101.181 Y74.594
G1 F1800 X118.235 Y91.648 E83.99764
G0 F3600 X118.235 Y92.213
G1 F1800 X101.181 Y75.159 E85.2009
G0 F3600 X101.181 Y75.725
G1 F1800 X117.985 Y92.529 E86.38651
G0 F3600 X117.42 Y92.529
G1 F1800 X101.181 Y76.291 E87.53222
G0 F3600 X101.181 Y76.856
G1 F1800 X116.854 Y92.529 E88.63804
G0 F3600 X116.288 Y92.529
G1 F1800 X110.413 Y86.654 E89.05255
G0 F3600 X110.026 Y86.267
G1 F1800 X101.163 Y77.404 E89.67788
G0 F3600 X101.018 Y77.825
G1 F1800 X109.272 Y86.079 E90.26025
G0 F3600 X108.707 Y86.079
G1 F1800 X100.766 Y78.139 E90.82049
G0 F3600 X100.406 Y78.344
G1 F1800 X108.141 Y86.079 E91.36624
G0 F3600 X107.575 Y86.079
G1 F1800 X99.932 Y78.436 E91.90549
G0 F3600 X99.367 Y78.437
G1 F1800 X107.009 Y86.078 E92.44464
G0 F3600 X106.443 Y86.078
G1 F1800 X98.802 Y78.437 E92.98376
G0 F3600 X98.237 Y78.438
G1 F1800 X105.877 Y86.078 E93.5228
G0 F3600 X105.312 Y86.078
G1 F1800 X102.218 Y82.985 E93.74106
G1 X102.148 Y82.915
G0 F3600 X100.407 Y81.174
G1 F1800 X97.672 Y78.439 E93.93403
G0 F3600 X97.377 Y78.71
G1 F1800 X99.748 Y81.081 E94.10132
G0 F3600 X99.182 Y81.08
G1 F1800 X97.377 Y79.275 E94.22867
G0 F3600 X97.377 Y79.841
G1 F1800 X98.615 Y81.079 E94.31602
G0 F3600 X98.049 Y81.078
G1 F1800 X97.377 Y80.407 E94.3634
G0 F3600 X97.377 Y80.972
G1 F1800 X97.483 Y81.078 E94.37088
G0 F3600 X100.38 Y81.423
G0 X110.243 Y86.431
G0 X110.595 Y87.401
G1 F1800 X115.722 Y92.529 E94.73265
G0 F3600 X115.157 Y92.529
G1 F1800 X110.595 Y87.967 E95.05452
G0 F3600 X110.595 Y88.533
G1 F1800 X114.591 Y92.529 E95.33646
G0 F3600 X114.025 Y92.529
G1 F1800 X110.595 Y89.098 E95.5785
G0 F3600 X110.595 Y89.664
